X:153
T:Billy's Jigg
M:6/8
L:1/8
B:Thompson's Compleat Collection of 200 Favourite Country Dances, vol. 1 (London, 1757)
Z:Transcribed and edited by Flynn Titford-Mock, 2007
Z:abc's:AK/Fiddler's Companion
K:A
cAc dBd|cAc BGE|cAc dBd|(c/d/e)G A3::cAc ece|dBd fdf|
cAc edc|(B/c/d)B G2E|cAc ece|dBd fga|fdB ecA|(c/d/e)G A2:|

